X:1
T:ERREKAN AMUARRAINAK
T:ERREKAN AMUARRAINAK
L:1/8
Q:1/4=55
M:2/4
K:C
V:1 treble nm="Flauta" snm="Fl."
V:1
 D2 D2 | A2 A2 | AA G2 | F4 | G2 A2 | F2 G2 | F2 E2 | D4 :: FE FE | D2 D2 | G2 F2 | E4 | F2 FE | %13
w: E- RRE-|KAN A-|MU- A- RRAI-|NAK|BA- SO-|AN I-|KAS- KI-|NAK|KA RRU- A- KIN|TRAN- KUN|MAI- LO-|AK|A- TZO HER-|
 D2 D2 | E2 C2 | D4 :: D2 D2 | A2 A2 | AA G2 | F4 | G2 A2 | F2 G2 | F2 E2 | D4 :: FE FE | D2 D2 | %26
w: NI- ON|NEN- GO-|AK|E- RRE-|KAN A-|MU- A- RRAI-|NAK|BA- SO-|AN I-|KAS- KI-|NAK|KA RRU- A- KIN|TRAN- KUN|
 G2 F2 | E4 | F2 FE | D2 D2 | E2 C2 | D4 :| %32
w: MAI- LO-|AK|A- TZO HER-|NI- ON|NEN- GO-|AK|

